src/assets/icons/checkbox-selected.svg

<svg width="16" height="16" viewBox="0 0 16 16" fill="none" xmlns="http://www.w3.org/2000/svg">
<g clip-path="url(#clip0_8874_15313)">
<path fill-rule="evenodd" clip-rule="evenodd" d="M1.84475 0.020268C1.05649 0.108065 0.362585 0.68138 0.108533 1.45479C-0.00431 1.79827 0.00145136 1.44634 0.00145136 7.99903C0.00145136 13.0561 0.00548806 14.0198 0.0273777 14.1825C0.154863 15.1301 0.923625 15.8775 1.87615 15.9798C2.12396 16.0064 13.8773 16.0064 14.1252 15.9798C15.098 15.8753 15.8769 15.0964 15.9814 14.1235C16.0081 13.8757 16.0081 2.12234 15.9814 1.87452C15.8769 0.901653 15.098 0.122744 14.1252 0.0182497C13.9013 -0.00580515 2.0613 -0.00386021 1.84475 0.020268ZM2.03771 1.85267C1.93833 1.87616 1.85943 1.97496 1.84549 2.09344C1.83912 2.14751 1.83635 4.84365 1.83932 8.08485L1.84475 13.9779L1.88259 14.0286C1.9034 14.0565 1.94321 14.0963 1.97108 14.1171L2.02176 14.1549H8.00065H13.9795L14.0302 14.1171C14.0581 14.0963 14.0979 14.0565 14.1187 14.0286L14.1566 13.9779V7.99903V2.02014L14.1187 1.96946C14.0979 1.94159 14.0581 1.90177 14.0302 1.88096L13.9795 1.84313L8.0406 1.84036C4.77417 1.83882 2.07286 1.84436 2.03771 1.85267ZM11.2348 4.44773C11.0957 4.47932 10.934 4.56307 10.8339 4.6553C10.793 4.69299 9.81673 5.90248 8.66443 7.34307C7.51213 8.78366 6.56526 9.96231 6.56028 9.96231C6.55529 9.96231 6.16948 9.67613 5.7029 9.32634C5.21208 8.95838 4.80746 8.66831 4.74278 8.63805C4.57463 8.55937 4.37711 8.53616 4.19455 8.57365C4.11445 8.59009 4.00299 8.62587 3.94684 8.65315C3.79688 8.72601 3.61868 8.91238 3.53332 9.08564C3.47167 9.21082 3.4625 9.24716 3.45463 9.39757C3.44024 9.67268 3.50703 9.88725 3.66417 10.0708C3.74431 10.1645 6.17546 11.9937 6.31113 12.0625C6.4248 12.1201 6.60311 12.1636 6.72544 12.1636C6.93391 12.1636 7.18296 12.0677 7.33255 11.9299C7.41405 11.8548 12.1511 5.94052 12.2306 5.81465C12.3219 5.6699 12.3539 5.54838 12.3534 5.34768C12.353 5.15115 12.32 5.02256 12.2312 4.87108C12.134 4.70525 11.9002 4.52059 11.7195 4.46692C11.5821 4.42609 11.3674 4.4176 11.2348 4.44773Z" fill="currentColor"/>
</g>
<defs>
<clipPath id="clip0_8874_15313">
<rect width="16" height="16" fill="white" transform="translate(0 -0.000732422)"/>
</clipPath>
</defs>
</svg>

<svg xmlns="http://www.w3.org/2000/svg" width="16" height="16" fill="none">
  <g clip-path="url(#a)">
    <path fill="currentColor" fill-rule="evenodd" d="M1.845.02C1.056.108.363.681.109 1.455-.004 1.798 0 1.446 0 7.999c0 5.057.004 6.02.026 6.183a2.098 2.098 0 0 0 1.85 1.798c.247.026 12 .026 12.248 0a2.1 2.1 0 0 0 1.856-1.857c.027-.247.027-12 0-12.248A2.1 2.1 0 0 0 14.125.018C13.901-.006 2.061-.004 1.845.02Zm.193 1.833c-.1.023-.179.122-.193.24-.006.055-.009 2.75-.006 5.992l.006 5.893.038.05c.02.028.06.068.088.09l.05.037H13.98l.05-.038a.522.522 0 0 0 .089-.088l.038-.051V2.02l-.038-.05a.523.523 0 0 0-.089-.089l-.05-.038-5.94-.003a610.21 610.21 0 0 0-6.002.013Zm9.197 2.595a.96.96 0 0 0-.401.207 206.92 206.92 0 0 0-2.17 2.688 402.32 402.32 0 0 1-2.104 2.62c-.005 0-.39-.287-.857-.637-.49-.368-.896-.658-.96-.688a.89.89 0 0 0-.548-.064c-.08.016-.192.052-.248.08-.15.072-.328.258-.414.432a.602.602 0 0 0-.078.312c-.015.275.052.49.21.673.08.094 2.51 1.923 2.646 1.992.114.057.292.1.414.1a.97.97 0 0 0 .608-.233c.081-.075 4.818-5.99 4.898-6.115a.772.772 0 0 0 .122-.467.85.85 0 0 0-.122-.477 1.04 1.04 0 0 0-.511-.404 1.122 1.122 0 0 0-.485-.02Z" clip-rule="evenodd"/>
  </g>
  <defs>
    <clipPath id="a">
      <path fill="#fff" d="M0 0h16v16H0z"/>
    </clipPath>
  </defs>
</svg>
